packages/vapor/resources/icons/svg/group-member.svg

<svg enable-background="new 0 0 500 500" viewBox="0 0 500 500" xmlns="http://www.w3.org/2000/svg"><g transform="translate(18 150)"><path d="m332.2 191.7v-8.3h116.2v-16.6c0-12.4-42.7-33.2-83-33.2-16.4 0-33.2 3.4-47.3 8.3-5.3-4.2-11.9-7.9-19.1-11 21.5-9.4 48.7-13.9 66.4-13.9 33.2 0 99.6 15.9 99.6 49.8v33.2h-149.4-16.6 16.6z"/><path d="m365 84.2c-18.4 0-33.3-15.1-33.3-33.7s14.9-33.7 33.3-33.7 33.3 15.1 33.3 33.7-14.9 33.7-33.3 33.7m0-84.2c-27.6 0-50 22.6-50 50.5s22.4 50.5 50 50.5 50-22.6 50-50.5-22.4-50.5-50-50.5"/><path d="m233 0c-27.6 0-50 22.6-50 50.5s22.4 50.5 50 50.5 50-22.6 50-50.5-22.4-50.5-50-50.5"/><path d="m183.3 183.4h-166.6v-16.6c0-12.4 42.8-33.2 83.3-33.2s83.3 20.8 83.3 33.2zm-183.3-16.6v33.2h200v-33.2c0-33.9-66.7-49.8-100-49.8s-100 15.9-100 49.8z"/><path d="m135 166.8v33.2h200v-33.2c0-33.9-66.7-49.8-100-49.8s-100 15.9-100 49.8z"/><path d="m100 84.2c-18.4 0-33.3-15.1-33.3-33.7s14.9-33.7 33.3-33.7 33.3 15.1 33.3 33.7-14.9 33.7-33.3 33.7m0-84.2c-27.7 0-50 22.6-50 50.5s22.4 50.5 50 50.5c27.7 0 50-22.6 50-50.5s-22.4-50.5-50-50.5"/></g></svg>

<?xml version="1.0" encoding="utf-8"?>
<!-- Generator: Adobe Illustrator 22.1.0, SVG Export Plug-In . SVG Version: 6.00 Build 0)  -->
<svg version="1.1" id="Calque_1" xmlns="http://www.w3.org/2000/svg" xmlns:xlink="http://www.w3.org/1999/xlink" x="0px" y="0px"
	 viewBox="0 0 500 500" style="enable-background:new 0 0 500 500;" xml:space="preserve">
<g id="icon-group-member">
	<g id="Icon_x2F_Source-Security_x2F_Shared-Copy-3" transform="translate(18.000000, 150.000000)">
		<path id="Combined-Shape-Copy" d="M332.2,191.7v-8.3h116.2v-16.6c0-12.4-42.7-33.2-83-33.2c-16.4,0-33.2,3.4-47.3,8.3
			c-5.3-4.2-11.9-7.9-19.1-11c21.5-9.4,48.7-13.9,66.4-13.9c33.2,0,99.6,15.9,99.6,49.8V200H315.6l0,0H299h16.6L332.2,191.7z"/>
		<path id="Shape-Copy" d="M365,84.2c-18.4,0-33.3-15.1-33.3-33.7s14.9-33.7,33.3-33.7c18.4,0,33.3,15.1,33.3,33.7
			S383.4,84.2,365,84.2 M365,0c-27.6,0-50,22.6-50,50.5s22.4,50.5,50,50.5c27.6,0,50-22.6,50-50.5C415,22.6,392.6,0,365,0"/>
		<path id="Shape" d="M233,0c-27.6,0-50,22.6-50,50.5s22.4,50.5,50,50.5c27.6,0,50-22.6,50-50.5C283,22.6,260.6,0,233,0
			"/>
		<path id="Shape_1_" d="M183.3,183.4H16.7v-16.6c0-12.4,42.8-33.2,83.3-33.2c40.5,0,83.3,20.8,83.3,33.2V183.4
			 M0,166.8V200h200v-33.2c0-33.9-66.7-49.8-100-49.8S0,132.9,0,166.8z"/>
		<path id="Shape-Copy-2" d="M135,166.8V200h200v-33.2c0-33.9-66.7-49.8-100-49.8S135,132.9,135,166.8z"/>
		<path id="Shape_2_" d="M100,84.2c-18.4,0-33.3-15.1-33.3-33.7S81.6,16.8,100,16.8c18.4,0,33.3,15.1,33.3,33.7
			S118.4,84.2,100,84.2 M100,0C72.3,0,50,22.6,50,50.5S72.4,101,100,101c27.7,0,50-22.6,50-50.5C150,22.6,127.6,0,100,0"/>
	</g>
</g>
</svg>
